svg/single/applepay.svg

<?xml version="1.0" encoding="UTF-8"?>
<svg width="512px" height="211px" viewBox="0 0 512 211" version="1.1" xmlns="http://www.w3.org/2000/svg" xmlns:xlink="http://www.w3.org/1999/xlink">
    <title>Apple_Pay_logo</title>
    <g id="Page-1" stroke="none" stroke-width="1" fill="none" fill-rule="evenodd">
        <g id="Apple_Pay_logo" transform="translate(0.000000, 0.000000)" fill="#000000" fill-rule="nonzero">
            <path d="M93.5413461,27.1 C87.5413461,34.2 77.9413461,39.8 68.3413461,39 C67.1413461,29.4 71.8413461,19.2 77.3413461,12.9 C83.3413461,5.6 93.8413461,0.4 102.341346,0 C103.341346,10 99.4413461,19.8 93.5413461,27.1 M102.241346,40.9 C88.3413461,40.1 76.4413461,48.8 69.8413461,48.8 C63.1413461,48.8 53.0413461,41.3 42.0413461,41.5 C27.7413461,41.7 14.4413461,49.8 7.14134607,62.7 C-7.85865393,88.5 3.24134607,126.7 17.7413461,147.7 C24.8413461,158.1 33.3413461,169.5 44.5413461,169.1 C55.1413461,168.7 59.3413461,162.2 72.1413461,162.2 C85.0413461,162.2 88.7413461,169.1 99.9413461,168.9 C111.541346,168.7 118.841346,158.5 125.941346,148.1 C134.041346,136.3 137.341346,124.8 137.541346,124.2 C137.341346,124 115.141346,115.5 114.941346,89.9 C114.741346,68.5 132.441346,58.3 133.241346,57.7 C123.241346,42.9 107.641346,41.3 102.241346,40.9 M182.541346,11.9 L182.541346,167.8 L206.741346,167.8 L206.741346,114.5 L240.241346,114.5 C270.841346,114.5 292.341346,93.5 292.341346,63.1 C292.341346,32.7 271.241346,11.9 241.041346,11.9 L182.541346,11.9 Z M206.741346,32.3 L234.641346,32.3 C255.641346,32.3 267.641346,43.5 267.641346,63.2 C267.641346,82.9 255.641346,94.2 234.541346,94.2 L206.741346,94.2 L206.741346,32.3 L206.741346,32.3 Z M336.541346,169 C351.741346,169 365.841346,161.3 372.241346,149.1 L372.741346,149.1 L372.741346,167.8 L395.141346,167.8 L395.141346,90.2 C395.141346,67.7 377.141346,53.2 349.441346,53.2 C323.741346,53.2 304.741346,67.9 304.041346,88.1 L325.841346,88.1 C327.641346,78.5 336.541346,72.2 348.741346,72.2 C363.541346,72.2 371.841346,79.1 371.841346,91.8 L371.841346,100.4 L341.641346,102.2 C313.541346,103.9 298.341346,115.4 298.341346,135.4 C298.341346,155.6 314.041346,169 336.541346,169 Z M343.041346,150.5 C330.141346,150.5 321.941346,144.3 321.941346,134.8 C321.941346,125 329.841346,119.3 344.941346,118.4 L371.841346,116.7 L371.841346,125.5 C371.841346,140.1 359.441346,150.5 343.041346,150.5 Z M425.041346,210.2 C448.641346,210.2 459.741346,201.2 469.441346,173.9 L511.941346,54.7 L487.341346,54.7 L458.841346,146.8 L458.341346,146.8 L429.841346,54.7 L404.541346,54.7 L445.541346,168.2 L443.341346,175.1 C439.641346,186.8 433.641346,191.3 422.941346,191.3 C421.041346,191.3 417.341346,191.1 415.841346,190.9 L415.841346,209.6 C417.241346,210 423.241346,210.2 425.041346,210.2 Z" id="XMLID_34_"></path>
        </g>
    </g>
</svg>

<?xml version="1.0" encoding="utf-8"?>
<!-- Generator: Adobe Illustrator 21.0.0, SVG Export Plug-In . SVG Version: 6.00 Build 0)  -->
<svg version="1.1" baseProfile="tiny" id="Layer_1" xmlns="http://www.w3.org/2000/svg" xmlns:xlink="http://www.w3.org/1999/xlink"
	 x="0px" y="0px" viewBox="0 0 512 210.2" xml:space="preserve">
<path id="XMLID_34_" d="M93.6,27.1C87.6,34.2,78,39.8,68.4,39c-1.2-9.6,3.5-19.8,9-26.1c6-7.3,16.5-12.5,25-12.9
	C103.4,10,99.5,19.8,93.6,27.1 M102.3,40.9c-13.9-0.8-25.8,7.9-32.4,7.9c-6.7,0-16.8-7.5-27.8-7.3c-14.3,0.2-27.6,8.3-34.9,21.2
	c-15,25.8-3.9,64,10.6,85c7.1,10.4,15.6,21.8,26.8,21.4c10.6-0.4,14.8-6.9,27.6-6.9c12.9,0,16.6,6.9,27.8,6.7
	c11.6-0.2,18.9-10.4,26-20.8c8.1-11.8,11.4-23.3,11.6-23.9c-0.2-0.2-22.4-8.7-22.6-34.3c-0.2-21.4,17.5-31.6,18.3-32.2
	C123.3,42.9,107.7,41.3,102.3,40.9 M182.6,11.9v155.9h24.2v-53.3h33.5c30.6,0,52.1-21,52.1-51.4c0-30.4-21.1-51.2-51.3-51.2H182.6z
	 M206.8,32.3h27.9c21,0,33,11.2,33,30.9c0,19.7-12,31-33.1,31h-27.8V32.3z M336.6,169c15.2,0,29.3-7.7,35.7-19.9h0.5v18.7h22.4V90.2
	c0-22.5-18-37-45.7-37c-25.7,0-44.7,14.7-45.4,34.9h21.8c1.8-9.6,10.7-15.9,22.9-15.9c14.8,0,23.1,6.9,23.1,19.6v8.6l-30.2,1.8
	c-28.1,1.7-43.3,13.2-43.3,33.2C298.4,155.6,314.1,169,336.6,169z M343.1,150.5c-12.9,0-21.1-6.2-21.1-15.7c0-9.8,7.9-15.5,23-16.4
	l26.9-1.7v8.8C371.9,140.1,359.5,150.5,343.1,150.5z M425.1,210.2c23.6,0,34.7-9,44.4-36.3L512,54.7h-24.6l-28.5,92.1h-0.5
	l-28.5-92.1h-25.3l41,113.5l-2.2,6.9c-3.7,11.7-9.7,16.2-20.4,16.2c-1.9,0-5.6-0.2-7.1-0.4v18.7C417.3,210,423.3,210.2,425.1,210.2z
	"/>
<g>
</g>
<g>
</g>
<g>
</g>
<g>
</g>
<g>
</g>
<g>
</g>
</svg>
